X: 527
T: Jöns Lars fars Bodapolska
O: Dalarna, Boda
R: Polska
Z: Håkan Lidén, 2008-09-27
M: 9/8
L: 1/4
K: A
E A c e g/ | a a b/a/ g e/ | d f e/d/ e c/ | B/G/ A c E3/2- | E A c e g/ |
a a b/a/ g e/ | d f e/d/ e c/ | B/G A3 ::[K:Am] c A c e c/ | B B A B B/ |
c A c e c/ | B B A B3/2- | B g ^f g a/ | g/=f/ e d e3/2- | e c B A ^G/ | A3/2 A3 :|
(:musicend:)

Alternativt i tretakt

(:music:)
